X:207
%%pagewidth 9in
%%vocalfont Baskerville10Pro 14
T:Fair Margaret and sweet William
M:3/4
L:1/8
K:F
%%score 1 2
V:1 clef-treble
V:2 clef-bass octave=-1
%%pos vol above
[V:1](d>e)f2[G^ce]2 & F2x4|[Fd]2A2B2 & x2D4|[FA]2D2E2|F4[Fd]2|
w:As* it fell out on a long sum-mer's day, Two
[V:2]d4A2|B2F2G2|D4G2 &x4C2|A4B,2 & F,4x2|
[V:1]c2d2B2 &F4F2|G2(BA)(GF) &D4 D2|[CE]4[CA]2|(G2A2)[B,E]2 & C4B,2|[CF]2d2c2 & x2F4|
w:lo-vers they sat on* a* hill; They sat* to-ge-ther that
[V:2]A,2B,2D2|B,2G,2B,2|C4F2|E2F2G2|A2B2A2|
[V:1]B2A2[FG]2 & F4x2|(G3A)[D_B]2 &E2x4|(A2d2)[DF]2 &[DF]4x2|(E2GF)([^CE]D) & D4x2|D6||
w:long sum-mer's day,* And could* not talk** their* fill.
[V:2]d2c2=B2|c4G2|A4B2|G2E2[G,G]2|[DF]6||

